images/button-images/sc2_B.svg

<?xml version='1.0' encoding='utf-8'?>
<svg xmlns="http://www.w3.org/2000/svg" viewBox="0 0 49.3039 47.4565" width="49.3039" height="47.4565"><g id="glyph"><g id="button"><g transform="scale(0.5) translate(-1178.98,-229.357)"><path d="M 1233.0924 229.3565 C 1221.6943 229.3565 1220.7573 229.5168 1214.4127 232.5226 C 1185.5078 246.2166 1178.9847 282.5951 1201.2487 305.9367 C 1207.0510 312.0197 1216.3646 317.3272 1223.8092 318.7941 C 1251.5969 324.2695 1277.5924 302.8028 1277.5924 274.3800 C 1277.5924 256.3073 1267.5585 239.9988 1251.8659 232.5655 C 1245.4124 229.5086 1244.5250 229.3566 1233.0924 229.3566 Z M 1231.5397 233.8722 C 1237.6479 233.7684 1244.1243 234.8782 1248.8444 237.0733 C 1266.5890 245.3253 1276.1695 265.6293 1271.2565 284.5694 C 1268.2167 296.2880 1258.1449 307.6175 1247.0924 311.7511 C 1240.8235 314.0957 1231.4649 314.9854 1225.5924 313.7941 C 1204.8778 309.5916 1190.0275 288.3972 1193.5651 268.0831 C 1196.3392 252.1527 1206.4259 240.3090 1221.4010 235.3976 C 1224.3421 234.4330 1227.8747 233.9345 1231.5397 233.8722 Z M 1219.5905 252.3565 L 1219.5905 273.1065 L 1219.5905 293.8566 L 1229.0710 293.8566 C 1243.7848 293.8566 1249.5925 290.4610 1249.5925 281.8565 C 1249.5925 278.0736 1247.2648 273.3293 1244.9792 272.4522 C 1243.4414 271.8621 1243.4693 271.6087 1245.3034 269.5812 C 1247.9572 266.6476 1248.6231 263.5551 1247.4870 259.4405 C 1245.9912 254.0230 1244.4903 253.4070 1231.4421 252.8566 Z M 1231.8561 257.8722 C 1234.4388 257.9213 1237.1685 258.1410 1238.0866 258.4933 C 1240.8334 259.5473 1241.8888 263.7528 1240.0944 266.4913 C 1238.7559 268.5342 1237.7441 268.8565 1232.6647 268.8565 L 1226.7838 268.8565 L 1226.4381 263.7726 C 1226.2473 260.9765 1226.2792 258.5015 1226.5081 258.2726 C 1226.8371 257.9440 1229.2730 257.8231 1231.8558 257.8722 Z M 1235.6100 274.9932 C 1238.2793 275.0482 1239.6193 275.4771 1240.7076 276.4620 C 1243.1048 278.6315 1243.1319 283.0577 1240.7626 285.2022 C 1239.4410 286.3982 1237.0615 286.8565 1232.1826 286.8565 L 1225.4306 286.8565 L 1225.7626 281.1065 L 1226.0927 275.3565 L 1232.4579 275.0557 C 1233.6831 274.9977 1234.7205 274.9747 1235.6103 274.9937 Z" style="fill:#000000" /></g></g></g></svg>

<svg xmlns="http://www.w3.org/2000/svg" width="49.304" height="47.456" viewBox="0 0 49.304 47.456"><g id="glyph"><g id="button"><g transform="scale(0.5) translate(-1178.98,-229.357)"><path d="M1233.092 229.357c-11.398 0-12.335.16-18.68 3.166-28.904 13.694-35.427 50.072-13.163 73.414 5.802 6.083 15.116 11.39 22.56 12.857 27.788 5.476 53.783-15.991 53.783-44.414 0-18.073-10.034-34.381-25.726-41.815-6.454-3.056-7.341-3.208-18.774-3.208m-1.552 4.515c6.108-.104 12.584 1.006 17.304 3.201 17.745 8.252 27.325 28.556 22.412 47.496-3.04 11.719-13.111 23.048-24.164 27.182-6.269 2.345-15.627 3.234-21.5 2.043-20.714-4.202-35.565-25.397-32.027-45.71 2.774-15.931 12.86-27.775 27.836-32.686 2.941-.965 6.474-1.463 10.139-1.526m-11.95 18.484v41.5h9.481c14.714 0 20.522-3.395 20.522-12 0-3.782-2.328-8.527-4.614-9.404-1.538-.59-1.51-.843.324-2.87 2.654-2.934 3.32-6.027 2.184-10.142-1.496-5.417-2.997-6.033-16.045-6.583Zm12.266 5.516c2.583.05 5.313.269 6.23.621 2.747 1.054 3.803 5.26 2.008 7.998-1.338 2.043-2.35 2.365-7.43 2.365h-5.88l-.346-5.083c-.19-2.797-.159-5.272.07-5.5.33-.329 2.765-.45 5.348-.4Zm3.754 17.121c2.67.055 4.01.484 5.098 1.469 2.397 2.17 2.424 6.596.055 8.74-1.322 1.196-3.701 1.654-8.58 1.654h-6.752l.332-5.75.33-5.75 6.365-.3a47 47 0 0 1 3.152-.062Z" style="fill:#000"/></g></g></g></svg>
